public/icons/bc.svg

<svg width="30" height="30" viewBox="0 0 30 30" fill="none" xmlns="http://www.w3.org/2000/svg">
<path d="M5.625 17.5C5.45924 17.5 5.30027 17.5658 5.18306 17.6831C5.06585 17.8003 5 17.9592 5 18.125C5 18.2908 5.06585 18.4497 5.18306 18.5669C5.30027 18.6842 5.45924 18.75 5.625 18.75H9.375C9.54076 18.75 9.69973 18.6842 9.81694 18.5669C9.93415 18.4497 10 18.2908 10 18.125C10 17.9592 9.93415 17.8003 9.81694 17.6831C9.69973 17.5658 9.54076 17.5 9.375 17.5H5.625Z" fill="#736AE4"/>
<path d="M26.875 3.75H3.125C2.62772 3.75 2.15081 3.94754 1.79917 4.29917C1.44754 4.65081 1.25 5.12772 1.25 5.625V19.375C1.25 19.8723 1.44754 20.3492 1.79917 20.7008C2.15081 21.0525 2.62772 21.25 3.125 21.25H9.375C9.54076 21.25 9.69973 21.1842 9.81694 21.0669C9.93415 20.9497 10 20.7908 10 20.625C10 20.4592 9.93415 20.3003 9.81694 20.1831C9.69973 20.0658 9.54076 20 9.375 20H3.125C2.95924 20 2.80027 19.9342 2.68306 19.8169C2.56585 19.6997 2.5 19.5408 2.5 19.375V8.75H27.5V19.375C27.5 19.5408 27.4342 19.6997 27.3169 19.8169C27.1997 19.9342 27.0408 20 26.875 20H25.625C25.4592 20 25.3003 20.0658 25.1831 20.1831C25.0658 20.3003 25 20.4592 25 20.625C25 20.7908 25.0658 20.9497 25.1831 21.0669C25.3003 21.1842 25.4592 21.25 25.625 21.25H26.875C27.3723 21.25 27.8492 21.0525 28.2008 20.7008C28.5525 20.3492 28.75 19.8723 28.75 19.375V5.625C28.75 5.12772 28.5525 4.65081 28.2008 4.29917C27.8492 3.94754 27.3723 3.75 26.875 3.75ZM2.5 7.5V5.625C2.5 5.45924 2.56585 5.30027 2.68306 5.18306C2.80027 5.06585 2.95924 5 3.125 5H26.875C27.0408 5 27.1997 5.06585 27.3169 5.18306C27.4342 5.30027 27.5 5.45924 27.5 5.625V7.5H2.5Z" fill="#736AE4"/>
<path d="M20.1875 21.8C20.9668 20.7951 21.3338 19.531 21.214 18.265C21.0941 16.999 20.4964 15.8262 19.5424 14.9854C18.5885 14.1445 17.35 13.6987 16.0789 13.7387C14.8079 13.7787 13.5999 14.3015 12.7007 15.2007C11.8015 16.0999 11.2787 17.3079 11.2387 18.5789C11.1987 19.85 11.6445 21.0885 12.4854 22.0424C13.3262 22.9964 14.499 23.5941 15.765 23.714C17.031 23.8338 18.2951 23.4668 19.3 22.6875L22.6875 26.0625C22.7436 26.1223 22.8114 26.17 22.8867 26.2026C22.9619 26.2351 23.043 26.2519 23.125 26.2519C23.207 26.2519 23.2882 26.2351 23.3634 26.2026C23.4387 26.17 23.5064 26.1223 23.5625 26.0625C23.6223 26.0064 23.67 25.9387 23.7026 25.8634C23.7351 25.7882 23.7519 25.707 23.7519 25.625C23.7519 25.543 23.7351 25.4619 23.7026 25.3867C23.67 25.3114 23.6223 25.2436 23.5625 25.1875L20.1875 21.8ZM12.5 18.75C12.5 18.0084 12.72 17.2833 13.132 16.6666C13.5441 16.05 14.1297 15.5693 14.815 15.2855C15.5002 15.0017 16.2542 14.9274 16.9816 15.0721C17.7091 15.2168 18.3772 15.5739 18.9017 16.0984C19.4261 16.6228 19.7833 17.291 19.928 18.0184C20.0727 18.7459 19.9984 19.4999 19.7146 20.1851C19.4308 20.8703 18.9501 21.456 18.3334 21.868C17.7167 22.2801 16.9917 22.5 16.25 22.5C15.2555 22.5 14.3016 22.1049 13.5984 21.4017C12.8951 20.6984 12.5 19.7446 12.5 18.75Z" fill="#736AE4"/>
</svg>

<svg width="30" height="30" fill="none" xmlns="http://www.w3.org/2000/svg"><path d="M5.625 17.5a.625.625 0 1 0 0 1.25h3.75a.625.625 0 1 0 0-1.25h-3.75Z" fill="#736AE4"/><path d="M26.875 3.75H3.125A1.875 1.875 0 0 0 1.25 5.625v13.75a1.875 1.875 0 0 0 1.875 1.875h6.25a.625.625 0 1 0 0-1.25h-6.25a.625.625 0 0 1-.625-.625V8.75h25v10.625a.624.624 0 0 1-.625.625h-1.25a.624.624 0 1 0 0 1.25h1.25a1.875 1.875 0 0 0 1.875-1.875V5.625a1.875 1.875 0 0 0-1.875-1.875ZM2.5 7.5V5.625A.625.625 0 0 1 3.125 5h23.75a.625.625 0 0 1 .625.625V7.5h-25Z" fill="#736AE4"/><path d="M20.188 21.8a5 5 0 1 0-.888.887l3.387 3.375a.6.6 0 0 0 .875 0 .6.6 0 0 0 0-.875L20.188 21.8ZM12.5 18.75a3.75 3.75 0 1 1 7.501 0 3.75 3.75 0 0 1-7.501 0Z" fill="#736AE4"/></svg>
